X: 288
T:Liberton Polka
S:simplified version played in sessions around Edinburgh
M:2/4
L:1/8
Q:1/4=96
K:D
AB/>A/ GA|dA     f2|fe/>f/ ge|dc/>e/ fa |
AB/>A/ GA|dA     f2|fe/>f/ gc|ed     d2:|
K:AMix
ef/>e/ ce|ac     e2|ef/>e/ dB|fe     e2 |
ef/>e/ ce|ac     e2|ef/>e/ dB|BA     A2:|
Ac     ce|ef/>e/ c2|ef/>e/ dB|Ac     c2 |
Ac     ce|ef/>e/ c2|ef/>e/ dB|BA     A2:|
af     fa|ef/>e/ c2|ef/>e/ dB|Ac     c2 |
af     fa|ef/>e/ c2|ef/>e/ dB|BA     A2:|

Shifting tonal centre also works with other modes and with gapped pitch
sets, like this pentatonic song from the North-East of Scotland:

